X: 2043
M: 3/2
L: 1/8
K: D
a |\
a3gf2 g2e3d | c3BA2 d2e3f | g3ab2 a2g3f | e6- e4 :: e | e3fg2 a2f3g | a3gfe
d2c3d | B3fe2 d2d3c | d6- d4 ::[M:C|] a | f3g e3d | | a3f g3a | f6 A2 | B3c d3B | c3d B3A | A6 :: A2 |
f2f2d2 a2a2f2 | g2e2a2 f6 :: f2f2g2 (ed)(ef)e2 | d2d2B2 (cB)(cd)c2 | dcde(fg) a3gf2 | g2e3d d6 |]


